src/pos-icons/notebook-outline.svg

<svg height="24" viewBox="0 0 24 24" width="24" xmlns="http://www.w3.org/2000/svg"><path d="m17 4v6l-2-2-2 2v-6h-4v16h10v-16zm-14 3v-2h2v-1c0-1.11.9-2 2-2h12c1.05 0 2 .95 2 2v16c0 1.05-.95 2-2 2h-12c-1.05 0-2-.95-2-2v-1h-2v-2h2v-4h-2v-2h2v-4zm2-2v2h2v-2zm0 14h2v-2h-2zm0-6h2v-2h-2z"/></svg>

<?xml version="1.0" encoding="UTF-8"?><!DOCTYPE svg PUBLIC "-//W3C//DTD SVG 1.1//EN" "http://www.w3.org/Graphics/SVG/1.1/DTD/svg11.dtd"><svg xmlns="http://www.w3.org/2000/svg" xmlns:xlink="http://www.w3.org/1999/xlink" version="1.1" id="mdi-notebook-outline" width="24" height="24" viewBox="0 0 24 24"><path d="M17,4V10L15,8L13,10V4H9V20H19V4H17M3,7V5H5V4C5,2.89 5.9,2 7,2H19C20.05,2 21,2.95 21,4V20C21,21.05 20.05,22 19,22H7C5.95,22 5,21.05 5,20V19H3V17H5V13H3V11H5V7H3M5,5V7H7V5H5M5,19H7V17H5V19M5,13H7V11H5V13Z" /></svg>
